X: 1
T: Sunny, Shiny Forest Revised
M: 4/4
L: 1/4
Q: 1/4=160
K: A major
V:1
| "A" ceeA | "D" df^cd | "Bm" eA^ce | "E7" ^G2e2 |
| "A" aece | "F#m" f^fed | "D" dBA^G | "A" A2 z2 |
| "D" d2 fd | "C#m" e^ceg | "Bm" bABc | "E7" e4 |
| "A" c'ba^g | "D" afed | "A/C#" cBA^G | "A" A4 |
```

```abc
